X:1
T:Paris, CM
T:Paris, CM
T:Michael Lonneke, 2005
T:© 2005 Michael Lonneke. May be reproduced for Christian use. Courtesy of the Cyber Hymnal™
C:Michael Lonneke, 2005
Z:© 2005 Michael Lonneke. May be reproduced for Christian use.
Z:Courtesy of the Cyber Hymnal™
%%score ( 1 2 ) ( 3 4 )
L:1/8
Q:1/4=134
M:3/4
K:F
V:1 treble 
V:2 treble 
V:3 bass 
V:4 bass 
V:1
 [A,D]2 | [A,D]4 E2 | [DF]4 [EG]2 | [DF]4 [^CE]2 | [A,D]4 [^CA]2 | [Fd]4 [Ac]2 | [^G=B]4 [GB]2 | %7
 [EA-]6 | [EA]4 || [^CA]2 | [Ad]4 [^Fc]2 | [GB]4 [^FA]2 | [DG]4 [DF]2 | [^CE]4 [DA]2 | %14
 [DG]4 [DF]2 | F4 [^CE]2 | [A,D]6- | [A,D]4"^Play 4 times" :|[K:D] [A,D]2 | [A,D]4 E2 | %20
 [DF]4 [EG]2 | [DF]4 [CE]2 | [A,D]4 [CA]2 | [Fd]4 [Ac]2 | [^GB]4 [GB]2 | [EA]6- x2 | [EA]4 || %27
 [CA]2 | [Ad]4 [Fc]2 | [GB]4 [FA]2 | [DG]4 [DF]2 | [CE]4 [DA]2 | [DG]4 [DF]2 | F4 [CE]2 | [A,D]6- | %35
 [A,D]4"^Play 2 times" :| %36
V:2
 x2 | x4 D^C | x6 | x6 | x6 | x6 | x6 | x6 | x4 || x2 | x6 | x6 | x6 | x6 | x6 | (D2 =B,2) x2 | %16
 x6 | x4 :|[K:D] x2 | x4 DC | x6 | x6 | x6 | x6 | x6 | x8 | x4 || x2 | x6 | x6 | x6 | x6 | x6 | %33
 (D2 B,2) x2 | x6 | x4 :| %36
V:3
 [D,F,]2 | [D,F,]4 [A,,G,]2 | [D,A,]4 [G,,B,]2 | [A,,A,]4 [A,,G,]2 | [D,F,]4 [A,,E,]2 | %5
 ([D,F,]2 [E,G,]2) [F,A,]2 | (=B,2 E2) [E,D]2 | ^C6- | [F,C]4 || [E,G,]2 | [D,F,]4 [D,A,]2 | %11
 [D,D]4 [D,C]2 | [G,,B,]4 [B,,G,]2 | [A,,G,]4 [F,,F,]2 | (B,2 A,2) [G,,G,]2 | [A,,A,]4 [A,,G,]2 | %16
 [D,F,]6- | [D,F,]4"^Play 4 times" :|[K:D] [D,F,]2 | [D,F,]4 [A,,G,]2 | [D,A,]4 [G,,B,]2 | %21
 [A,,A,]4 [A,,G,]2 | [D,F,]4 [A,,E,]2 | ([D,F,]2 [E,G,]2) [F,A,]2 | (B,2 E2) [E,D]2 | C6- (G,2 | %26
 [F,C]4) || [E,G,]2 | [D,F,]4 [D,A,]2 | [D,D]4 [D,C]2 | [G,,B,]4 [B,,G,]2 | [A,,G,]4 [F,,F,]2 | %32
 (B,2 A,2) [G,,G,]2 | [A,,A,]4 [A,,G,]2 | [D,F,]6- | [D,F,]4"^Play 2 times" :| %36
V:4
 x2 | x6 | x6 | x6 | x6 | x6 | E,4 x2 | A,,4 G,2 | x4 || x2 | x6 | x6 | x6 | x6 | D,4 x2 | x6 | %16
 x6 | x4 :|[K:D] x2 | x6 | x6 | x6 | x6 | x6 | E,4 x2 | A,,4 x4 | x4 || x2 | x6 | x6 | x6 | x6 | %32
 D,4 x2 | x6 | x6 | x4 :| %36

